projects/icons/src/tuiIconUndo2.svg

<svg xmlns="http://www.w3.org/2000/svg" id="tuiIconUndo2" viewBox="0 0 24 24" fill="none">
<path d="M1.21204 10.9669C1.21259 11.341 1.3731 11.7229 1.6955 11.9826C1.696 11.983 1.6965 11.9834 1.697 11.9838L8.71466 17.6483C8.71526 17.6488 8.71587 17.6492 8.71647 17.6497C8.94196 17.8322 9.22283 17.9325 9.51294 17.9341C9.80382 17.9358 10.0866 17.8382 10.3145 17.6575L10.3145 17.6575L9.78704 16.524L10.723 16.1719L10.7229 16.1715C10.7227 16.171 10.7225 16.1704 10.7223 16.1699L9.81443 13.7563C11.7839 13.7801 13.2016 14.0117 14.4214 14.6311C15.9029 15.3833 17.2372 16.7846 18.852 19.5062C19.0996 19.9235 19.6108 20.1028 20.0648 19.9317C20.5187 19.7606 20.7844 19.2883 20.6949 18.8115C20.2365 16.3694 19.5222 13.8315 17.681 11.8362C16.0052 10.0202 13.5095 8.76955 9.76932 8.2949L10.723 5.76011L10.723 5.76003C10.8199 5.50257 10.8332 5.22116 10.7611 4.95568C10.6892 4.69079 10.536 4.45519 10.3229 4.28212C10.0956 4.09726 9.81155 3.99634 9.51854 3.99634C9.22632 3.99634 8.943 4.09671 8.71597 4.28062C8.71536 4.28112 8.71474 4.28162 8.71413 4.28212L1.69481 9.94995L1.69477 9.9499L1.68579 9.95732C1.53694 10.0804 1.41725 10.235 1.33533 10.4099C1.25368 10.5842 1.21158 10.7744 1.21204 10.9669ZM1.21204 10.9669C1.21204 10.9663 1.21204 10.9656 1.21204 10.965H2.21204L1.21205 10.9688C1.21204 10.9682 1.21204 10.9675 1.21204 10.9669ZM9.97542 16.0957L9.97313 16.0938C9.9739 16.0945 9.97466 16.0951 9.97542 16.0957Z" stroke="currentColor" stroke-width="2" stroke-linecap="round" stroke-linejoin="round"/>
</svg>

<svg xmlns="http://www.w3.org/2000/svg" id="tuiIconUndo2" fill="none" viewBox="0 0 24 24"><path stroke="currentColor" stroke-linecap="round" stroke-linejoin="round" stroke-width="2" d="M1.212 10.967c0 .374.161.756.484 1.016h.001l7.018 5.665.001.002a1.277 1.277 0 001.599.008h0l-.528-1.134.936-.352h0v-.002l-.909-2.414c1.97.024 3.388.256 4.607.875 1.482.752 2.816 2.154 4.431 4.875a1 1 0 001.843-.695c-.459-2.442-1.173-4.98-3.014-6.975-1.676-1.816-4.172-3.066-7.912-3.541l.954-2.535h0a1.31 1.31 0 00-.4-1.478 1.275 1.275 0 00-1.607-.001l-.002.001-7.02 5.668h0l-.008.007a1.306 1.306 0 00-.474 1.01zm0 0v-.002h1l-1 .004v-.002zm8.763 5.129l-.002-.002.002.002z"/></svg>
